images/services/services1.svg

<svg width="101" height="100" viewBox="0 0 101 100" fill="none" xmlns="http://www.w3.org/2000/svg">
<rect x="0.5" width="100" height="100" rx="50" fill="#EBEDEF"/>
<path d="M49.42 42.1541C49.1548 42.1541 48.9004 42.2595 48.7129 42.447C48.5254 42.6345 48.42 42.8889 48.42 43.1541V49.6241L42.52 55.5141C42.4263 55.6071 42.3519 55.7177 42.3011 55.8395C42.2503 55.9614 42.2242 56.0921 42.2242 56.2241C42.2242 56.3561 42.2503 56.4868 42.3011 56.6087C42.3519 56.7305 42.4263 56.8411 42.52 56.9341C42.613 57.0278 42.7236 57.1022 42.8454 57.153C42.9673 57.2038 43.098 57.2299 43.23 57.2299C43.362 57.2299 43.4927 57.2038 43.6146 57.153C43.7364 57.1022 43.847 57.0278 43.94 56.9341L50.13 50.7441C50.2227 50.6507 50.296 50.5398 50.3458 50.418C50.3955 50.2962 50.4208 50.1657 50.42 50.0341V43.1541C50.42 42.8889 50.3146 42.6345 50.1271 42.447C49.9396 42.2595 49.6852 42.1541 49.42 42.1541Z" fill="#F26600"/>
<path d="M76.07 72.8241C75.5844 70.8039 74.5964 68.9391 73.1979 67.4025C71.7994 65.8659 70.0356 64.7073 68.07 64.0341C68.8686 63.4517 69.5308 62.7024 70.0107 61.8382C70.4907 60.9741 70.7767 60.0159 70.849 59.0301C70.9213 58.0443 70.7783 57.0546 70.4296 56.1297C70.0808 55.2047 69.535 54.3668 68.8299 53.6741C69.0714 52.4755 69.1987 51.2567 69.2099 50.0341C69.2203 45.9337 67.9599 41.9308 65.6022 38.576C63.2445 35.2213 59.9053 32.6794 56.0438 31.3001C52.1824 29.9208 47.9885 29.7718 44.0389 30.8736C40.0893 31.9754 36.5781 34.2739 33.9883 37.453C31.3985 40.632 29.8572 44.5353 29.5766 48.6261C29.296 52.7169 30.2898 56.7942 32.4212 60.2971C34.5527 63.8 37.7171 66.5564 41.4792 68.1872C45.2414 69.8181 49.4164 70.2432 53.43 69.4041C52.8195 70.4432 52.3615 71.5647 52.07 72.7341C52.0182 72.9087 52.015 73.094 52.0608 73.2703C52.1066 73.4465 52.1997 73.6069 52.3299 73.7341C53.8163 75.3917 55.6362 76.7164 57.6704 77.6214C59.7045 78.5265 61.9071 78.9914 64.1334 78.9858C66.3598 78.9801 68.5599 78.504 70.5894 77.5886C72.6189 76.6732 74.432 75.3392 75.91 73.6741C75.9986 73.5534 76.059 73.4144 76.0867 73.2673C76.1143 73.1202 76.1087 72.9687 76.07 72.8241ZM68.86 58.5241C68.8575 59.7974 68.3531 61.0184 67.4566 61.9225C66.56 62.8266 65.3433 63.3409 64.07 63.3541C63.1156 63.3501 62.1838 63.0635 61.3921 62.5304C60.6004 61.9973 59.9844 61.2415 59.6219 60.3586C59.2594 59.4757 59.1667 58.5052 59.3553 57.5696C59.5439 56.634 60.0055 55.7752 60.6818 55.1018C61.358 54.4283 62.2186 53.9702 63.155 53.7855C64.0914 53.6007 65.0616 53.6975 65.943 54.0637C66.8244 54.4298 67.5774 55.0489 68.1073 55.8428C68.6371 56.6366 68.9199 57.5697 68.9199 58.5241H68.86ZM50.4199 67.7741V64.1541C50.4199 63.8889 50.3146 63.6345 50.127 63.447C49.9395 63.2594 49.6852 63.1541 49.42 63.1541C49.1548 63.1541 48.9004 63.2594 48.7129 63.447C48.5254 63.6345 48.42 63.8889 48.42 64.1541V67.7741C44.4026 67.5523 40.5816 65.9647 37.59 63.2741L40.1399 60.7241C40.2446 60.6344 40.3296 60.5241 40.3897 60.4001C40.4497 60.276 40.4835 60.1409 40.4888 60.0031C40.4942 59.8654 40.4709 59.7281 40.4207 59.5998C40.3704 59.4714 40.294 59.3549 40.1966 59.2574C40.0991 59.16 39.9827 59.0837 39.8544 59.0335C39.726 58.9832 39.5887 58.96 39.451 58.9653C39.3133 58.9706 39.1781 59.0043 39.0541 59.0644C38.93 59.1244 38.8196 59.2094 38.7299 59.3141L36.18 61.8641C33.4924 58.8716 31.9082 55.0504 31.69 51.0341H35.3C35.5652 51.0341 35.8196 50.9287 36.0071 50.7412C36.1947 50.5537 36.3 50.2993 36.3 50.0341C36.3 49.7689 36.1947 49.5145 36.0071 49.327C35.8196 49.1394 35.5652 49.0341 35.3 49.0341H31.69C31.9082 45.0178 33.4924 41.1966 36.18 38.2041L38.7299 40.7541C38.9173 40.9403 39.1707 41.0449 39.4349 41.0449C39.6992 41.0449 39.9527 40.9403 40.1399 40.7541C40.3263 40.5667 40.4307 40.3133 40.4307 40.0491C40.4307 39.7849 40.3263 39.5315 40.1399 39.3441L37.59 36.7941C40.5816 34.1035 44.4026 32.5158 48.42 32.2941V35.9141C48.42 36.1793 48.5254 36.4337 48.7129 36.6212C48.9004 36.8087 49.1548 36.9141 49.42 36.9141C49.6852 36.9141 49.9395 36.8087 50.127 36.6212C50.3146 36.4337 50.4199 36.1793 50.4199 35.9141V32.2941C54.4354 32.5162 58.2553 34.0999 61.25 36.7841L58.7 39.3441C58.5138 39.5315 58.4091 39.7849 58.4091 40.0491C58.4091 40.3133 58.5138 40.5667 58.7 40.7541C58.8874 40.9403 59.1407 41.0449 59.4049 41.0449C59.6691 41.0449 59.9227 40.9403 60.11 40.7541L62.6699 38.2041C65.3541 41.1988 66.9379 45.0187 67.16 49.0341H63.54C63.2747 49.0341 63.0205 49.1394 62.8329 49.327C62.6454 49.5145 62.54 49.7689 62.54 50.0341C62.54 50.2993 62.6454 50.5537 62.8329 50.7412C63.0205 50.9287 63.2747 51.0341 63.54 51.0341H67.15C67.15 51.4874 67.11 51.9374 67.0299 52.3841C66.0974 51.9237 65.07 51.6874 64.0299 51.6941C62.5933 51.7036 61.1962 52.1666 60.0382 53.017C58.8801 53.8675 58.0202 55.062 57.5812 56.43C57.1421 57.7981 57.1465 59.2699 57.5933 60.6354C58.0402 62.0009 58.9071 63.1903 60.07 64.0341C58.4032 64.6021 56.8784 65.523 55.5999 66.7341C53.9359 67.3411 52.1893 67.6917 50.4199 67.7741Z" fill="#F26600"/>
<path d="M46.5301 70.1641C46.437 70.0704 46.3265 69.996 46.2045 69.9452C46.0828 69.8944 45.952 69.8683 45.82 69.8683C45.688 69.8683 45.5572 69.8944 45.4354 69.9452C45.3135 69.996 45.2029 70.0704 45.1101 70.1641C44.9237 70.3515 44.8193 70.6049 44.8193 70.8691C44.8193 71.1333 44.9237 71.3867 45.1101 71.5741L46.84 73.3041C41.1152 72.6607 35.8272 69.9334 31.9839 65.642C28.1406 61.3505 26.0106 55.795 26 50.0341C26 49.7689 25.8946 49.5145 25.7071 49.327C25.5196 49.1395 25.2652 49.0341 25 49.0341C24.7348 49.0341 24.4804 49.1395 24.2929 49.327C24.1054 49.5145 24 49.7689 24 50.0341C24.0069 56.368 26.3744 62.4719 30.6403 67.1539C34.9062 71.8358 40.764 74.7595 47.07 75.3541L45.07 77.3541C44.9762 77.4471 44.9018 77.5577 44.8512 77.6795C44.8004 77.8014 44.7743 77.9321 44.7743 78.0641C44.7743 78.1961 44.8004 78.3268 44.8512 78.4487C44.9018 78.5705 44.9762 78.6811 45.07 78.7741C45.1629 78.8678 45.2736 78.9422 45.3955 78.993C45.5173 79.0438 45.648 79.0699 45.7801 79.0699C45.9121 79.0699 46.0428 79.0438 46.1646 78.993C46.2865 78.9422 46.397 78.8678 46.49 78.7741L49.9501 75.3041C50.1063 75.1939 50.2278 75.0412 50.3 74.8641C50.3765 74.682 50.3975 74.4813 50.3601 74.2873C50.3228 74.0933 50.2288 73.9147 50.09 73.7741L46.5301 70.1641Z" fill="#F26600"/>
<path d="M48.71 26.3141L52.29 29.8841C52.4293 30.0245 52.607 30.1205 52.8009 30.1599C52.9947 30.1993 53.1958 30.1803 53.3788 30.1054C53.5619 30.0304 53.7186 29.9029 53.8291 29.7389C53.9397 29.575 53.9992 29.3819 54 29.1841C54.0008 29.0525 53.9755 28.922 53.9258 28.8002C53.876 28.6784 53.8027 28.5675 53.71 28.4741L51.97 26.7541C57.7028 27.3887 63.0007 30.1138 66.8508 34.4085C70.7009 38.7032 72.8332 44.2663 72.84 50.0341C72.84 50.2993 72.9454 50.5537 73.1329 50.7412C73.3204 50.9287 73.5748 51.0341 73.84 51.0341C74.1052 51.0341 74.3596 50.9287 74.5471 50.7412C74.7346 50.5537 74.84 50.2993 74.84 50.0341C74.8322 43.6939 72.4591 37.5848 68.1849 32.9019C63.9108 28.219 58.0431 25.2993 51.73 24.7141L53.73 22.7141C53.9183 22.5258 54.0241 22.2704 54.0241 22.0041C54.0241 21.7378 53.9183 21.4824 53.73 21.2941C53.5417 21.1058 53.2863 21 53.02 21C52.7537 21 52.4983 21.1058 52.31 21.2941L48.72 24.9041H48.66C48.5329 25.0543 48.4528 25.2387 48.43 25.4341C48.4253 25.4973 48.4253 25.5609 48.43 25.6241C48.431 25.8816 48.5313 26.1287 48.71 26.3141Z" fill="#F26600"/>
</svg>

<svg width="101" height="100" fill="none" xmlns="http://www.w3.org/2000/svg"><rect x=".5" width="100" height="100" rx="50" fill="#EBEDEF"/><path d="M49.42 42.154a1 1 0 0 0-1 1v6.47l-5.9 5.89a1.002 1.002 0 0 0 .325 1.639 1 1 0 0 0 1.095-.219l6.19-6.19a1 1 0 0 0 .29-.71v-6.88a1 1 0 0 0-1-1Z" fill="#F26600"/><path d="M76.07 72.824a12.34 12.34 0 0 0-8-8.79 6.81 6.81 0 0 0 .76-10.36c.241-1.199.369-2.417.38-3.64a19.84 19.84 0 1 0-15.78 19.37 12.58 12.58 0 0 0-1.36 3.33 1 1 0 0 0 .26 1 15.799 15.799 0 0 0 23.58-.06 1 1 0 0 0 .16-.85Zm-7.21-14.3a4.84 4.84 0 0 1-4.79 4.83 4.83 4.83 0 1 1 4.85-4.83h-.06Zm-18.44 9.25v-3.62a1 1 0 1 0-2 0v3.62a17.65 17.65 0 0 1-10.83-4.5l2.55-2.55a1.002 1.002 0 0 0 .057-1.467 1 1 0 0 0-1.467.057l-2.55 2.55a17.64 17.64 0 0 1-4.49-10.83h3.61a1 1 0 0 0 0-2h-3.61a17.64 17.64 0 0 1 4.49-10.83l2.55 2.55a1 1 0 0 0 1.41 0 1 1 0 0 0 0-1.41l-2.55-2.55a17.65 17.65 0 0 1 10.83-4.5v3.62a1 1 0 0 0 2 0v-3.62a17.69 17.69 0 0 1 10.83 4.49l-2.55 2.56a1 1 0 0 0 0 1.41 1 1 0 0 0 1.41 0l2.56-2.55a17.69 17.69 0 0 1 4.49 10.83h-3.62a1 1 0 1 0 0 2h3.61c0 .453-.04.903-.12 1.35a6.68 6.68 0 0 0-3-.69 6.82 6.82 0 0 0-3.96 12.34 12.242 12.242 0 0 0-4.47 2.7 17.49 17.49 0 0 1-5.18 1.04Z" fill="#F26600"/><path d="M46.53 70.164a1.002 1.002 0 1 0-1.42 1.41l1.73 1.73A23.46 23.46 0 0 1 26 50.034a1 1 0 0 0-2 0 25.46 25.46 0 0 0 23.07 25.32l-2 2a.997.997 0 0 0-.219 1.095c.05.121.125.232.219.325a1 1 0 0 0 1.42 0l3.46-3.47c.156-.11.278-.263.35-.44a1 1 0 0 0-.21-1.09l-3.56-3.61ZM48.71 26.314l3.58 3.57a1 1 0 1 0 1.42-1.41l-1.74-1.72a23.45 23.45 0 0 1 20.87 23.28 1 1 0 0 0 2 0 25.46 25.46 0 0 0-23.11-25.32l2-2a1.004 1.004 0 1 0-1.42-1.42l-3.59 3.61h-.06a1 1 0 0 0-.23.53 1.282 1.282 0 0 0 0 .19 1 1 0 0 0 .28.69Z" fill="#F26600"/></svg>
